build/system/IPOutline.svg

<svg xmlns="http://www.w3.org/2000/svg" fill="none" viewBox="0 0 24 24" focusable="false"><path d="M0 0H24V24H0z"/><path fill="#74767B" fill-rule="evenodd" d="M11.5737 20.8201C11.8574 21.0664 12.1411 21.0667 12.4253 20.8208C12.6994 20.5837 13.0389 20.2636 13.4438 19.8606C14.2495 19.0585 14.9886 18.2354 15.6611 17.3911C16.6099 16.1997 17.3574 15.0481 17.9038 13.9358C18.605 12.5079 18.9556 11.1794 18.9556 9.95044C18.9556 9.43319 18.9007 8.92814 18.791 8.4353C18.7008 8.0297 18.5734 7.63184 18.4087 7.24268C18.2427 6.84993 18.0443 6.47835 17.8135 6.12793C17.5553 5.736 17.257 5.37069 16.9185 5.03198C16.5796 4.69328 16.2142 4.39486 15.8223 4.13672C15.472 3.90609 15.1004 3.70768 14.7075 3.5415C14.3185 3.37695 13.9212 3.24951 13.5156 3.15918C13.0225 3.04948 12.5173 2.99463 12 2.99463C11.4824 2.99463 10.9771 3.04948 10.4839 3.15918C10.0783 3.24951 9.68099 3.37695 9.29199 3.5415C8.89909 3.70768 8.52751 3.90609 8.17725 4.13672C7.78532 4.39486 7.41992 4.69328 7.08105 5.03198C6.74251 5.37069 6.44417 5.736 6.18604 6.12793C5.95524 6.47835 5.75684 6.84993 5.59082 7.24268C5.42611 7.63184 5.29867 8.02921 5.2085 8.43481C5.0988 8.92782 5.04395 9.43302 5.04395 9.95044C5.04395 11.1746 5.39453 12.5001 6.0957 13.927C6.64193 15.0382 7.38949 16.1901 8.33838 17.3828C9.01058 18.228 9.74951 19.0527 10.5552 19.8569C10.96 20.261 11.2993 20.582 11.5737 20.8201ZM12.0005 19.4504C12.1593 19.3005 12.3346 19.1301 12.5264 18.9392C13.2969 18.1723 14.0028 17.3863 14.644 16.5813C15.5347 15.4635 16.2323 14.3906 16.7368 13.3628C17.3494 12.1156 17.6558 10.9781 17.6558 9.95044C17.6558 9.52091 17.6094 9.10189 17.5166 8.69336C17.4434 8.37207 17.3416 8.05737 17.2114 7.74927C16.9253 7.07251 16.521 6.47314 15.999 5.95117C15.4771 5.4292 14.8774 5.0249 14.2012 4.73877C13.8929 4.6084 13.5781 4.50675 13.2568 4.43384C12.8483 4.34106 12.4294 4.29468 12 4.29468C11.5703 4.29468 11.1512 4.34106 10.7427 4.43384C10.4214 4.50675 10.1066 4.6084 9.79834 4.73877C9.48356 4.87207 9.18538 5.03092 8.90381 5.21533C8.58057 5.42692 8.27946 5.6722 8.00049 5.95117C7.72152 6.23014 7.47624 6.53117 7.26465 6.85425C7.08008 7.13582 6.92122 7.43416 6.78809 7.74927C6.65788 8.05737 6.55615 8.37207 6.48291 8.69336C6.39014 9.10189 6.34375 9.52091 6.34375 9.95044C6.34375 10.9732 6.65006 12.1076 7.2627 13.3535C7.76758 14.3807 8.46517 15.454 9.35547 16.5735C9.99707 17.38 10.7031 18.1677 11.4736 18.9368C11.666 19.1287 11.8416 19.2999 12.0005 19.4504ZM11.7417 11.262L11.7417 13.2996C11.7417 13.6636 12.0278 13.9495 12.3921 13.9495C12.7559 13.9495 13.042 13.6636 13.042 13.2996L13.042 11.9119L14.1211 11.9119C14.4346 11.9119 14.7349 11.8513 15.0215 11.73C15.2983 11.6128 15.5435 11.4475 15.7568 11.2344C15.9702 11.021 16.1353 10.7761 16.2524 10.4993C16.3084 10.3668 16.3516 10.2315 16.3818 10.0935C16.417 9.93237 16.4346 9.76742 16.4346 9.59863C16.4346 9.42969 16.4168 9.26465 16.3813 9.10352C16.3514 8.96549 16.3084 8.83024 16.2524 8.69775C16.1353 8.4209 15.9702 8.17603 15.7568 7.96265C15.6455 7.85132 15.5256 7.75309 15.397 7.66797C15.2791 7.59001 15.154 7.52311 15.0215 7.46729C14.8893 7.4113 14.7542 7.36816 14.6162 7.33789C14.4551 7.30273 14.29 7.28516 14.1211 7.28516L12.3921 7.28516C12.1753 7.28516 12.0127 7.33927 11.9043 7.44751C11.7959 7.55591 11.7417 7.71842 11.7417 7.93506L11.7417 11.262ZM13.042 10.6121L14.1211 10.6121C14.2588 10.6121 14.3901 10.5854 14.5151 10.5327C14.6362 10.4814 14.7437 10.4089 14.8374 10.3152C14.9312 10.2214 15.0039 10.114 15.0552 9.99292C15.1079 9.86768 15.1343 9.73633 15.1343 9.59863C15.1343 9.51758 15.1252 9.43872 15.1069 9.36206C15.0942 9.30835 15.077 9.25578 15.0552 9.20435C15.0039 9.08301 14.9312 8.97559 14.8374 8.88184C14.7437 8.78833 14.6362 8.71582 14.5151 8.66455C14.3901 8.61157 14.2588 8.58521 14.1211 8.58521L13.042 8.58521L13.042 10.6121ZM10.1895 13.2993L10.1895 7.93506C10.1895 7.57129 9.90332 7.28516 9.53955 7.28516C9.17529 7.28516 8.88916 7.57129 8.88916 7.93506L8.88916 13.2993C8.88916 13.6633 9.17529 13.9495 9.53955 13.9495C9.90332 13.9495 10.1895 13.6633 10.1895 13.2993Z"/></svg>

<svg xmlns="http://www.w3.org/2000/svg" fill="none" viewBox="0 0 24 24" focusable="false"><path fill="#74767B" fill-rule="evenodd" d="M11.57 20.82c.28.24.57.24.85 0q.405-.36 1.02-.96c.8-.81 1.54-1.63 2.22-2.47.94-1.2 1.69-2.35 2.24-3.46.7-1.43 1.05-2.76 1.05-3.98 0-.52-.05-1.03-.16-1.52-.09-.41-.22-.8-.39-1.19-.16-.4-.36-.77-.59-1.12-.26-.39-.56-.75-.9-1.09s-.7-.64-1.09-.9c-.35-.23-.72-.43-1.12-.59-.39-.17-.78-.3-1.19-.39-.49-.11-1-.16-1.51-.16-.52 0-1.03.05-1.52.16-.41.09-.8.22-1.19.39-.4.16-.77.36-1.12.59-.39.26-.76.56-1.09.9-.34.34-.64.7-.9 1.09-.23.35-.43.72-.59 1.12-.17.39-.3.78-.39 1.19-.11.49-.16 1-.16 1.52 0 1.22.35 2.55 1.05 3.97.55 1.11 1.29 2.27 2.24 3.46.68.84 1.41 1.67 2.22 2.47.41.41.74.73 1.02.97m.43-1.37c.15-.15.33-.32.52-.52.77-.76 1.48-1.55 2.12-2.35.89-1.12 1.59-2.19 2.09-3.22.61-1.25.92-2.39.92-3.41a5.9 5.9 0 0 0-.44-2.21c-.29-.67-.69-1.27-1.22-1.79-.52-.53-1.12-.93-1.79-1.22a5.84 5.84 0 0 0-2.2-.44 5.9 5.9 0 0 0-2.21.44c-.31.14-.61.3-.89.48-.32.21-.63.46-.9.74-.28.28-.53.58-.74.9-.18.28-.34.58-.48.89a5.862 5.862 0 0 0-.44 2.21c0 1.02.3 2.15.92 3.4.5 1.03 1.2 2.1 2.09 3.22.64.8 1.35 1.59 2.12 2.36.19.19.37.36.53.52m-.26-8.19v2.03c0 .37.28.65.65.65.36 0 .65-.28.65-.65v-1.38h1.08q.465 0 .9-.18c.27-.12.52-.29.73-.5.22-.21.38-.46.5-.74.05-.13.1-.26.13-.4.03-.16.05-.33.05-.5s-.02-.33-.05-.49c-.03-.14-.08-.27-.13-.41-.12-.27-.28-.52-.5-.73q-.165-.165-.36-.3c-.12-.07-.24-.14-.37-.2-.14-.05-.27-.1-.41-.13-.16-.03-.32-.05-.49-.05h-1.73c-.22 0-.38.05-.49.16s-.16.27-.16.49zm1.3-.65h1.08c.13 0 .27-.03.39-.08s.23-.13.32-.22c.1-.09.17-.2.22-.32.05-.13.08-.26.08-.4 0-.08-.01-.16-.03-.23-.01-.06-.03-.11-.05-.16a.9.9 0 0 0-.22-.32c-.09-.1-.2-.17-.32-.22s-.26-.08-.39-.08h-1.08zm-2.86 2.68V7.93c0-.36-.28-.65-.65-.65-.36 0-.65.29-.65.65v5.36c0 .37.29.65.65.65.37 0 .65-.28.65-.65"/></svg>
